frontend/src/images/home/2_birds.svg

<svg width="315" height="112" viewBox="0 0 315 112" fill="none" xmlns="http://www.w3.org/2000/svg">
<path d="M306.244 22.0502C301.765 13.6869 295.241 9.09318 287.84 9.09318C280.667 9.09318 274.711 7.00236 273.51 4.07216C272.585 1.81346 268.349 1.84398 266.986 4.1332C266.044 5.72039 265.119 5.52199 259.439 2.50023C252.006 -1.42197 248.063 -0.643637 242.155 5.96458C232.905 16.2661 241.425 24.8888 251.909 15.8235C258.547 10.0852 261.939 9.85625 261.939 15.1215C261.939 23.0116 266.093 29.0094 272.439 30.2761C275.571 30.9018 279.028 31.7564 280.148 32.1532C281.884 32.779 282.16 32.199 281.998 28.3074C281.462 15.7777 296.717 17.5938 305.319 31.0697C308.208 35.6023 309.912 37.1895 311.924 37.1895C317.004 37.1895 313.953 36.4417 306.244 22.0502Z" fill="#575757"/>
<path d="M39.7617 82.5773C44.4844 91.3374 56.4127 95.1223 55.228 87.4763C54.1082 80.2423 59.5124 79.9066 64.2351 86.9421C65.9554 89.4908 69.12 103.608 69.12 108.69C69.12 111.025 69.6069 112.337 70.321 111.925C76.7477 108.201 66.9129 79.2198 56.8347 72.2301C53.3779 69.834 49.8075 67.0412 48.9149 66.0187C46.9187 63.76 43.2672 63.5921 42.3908 65.7134C41.9689 66.736 39.0963 67.4227 33.8868 67.7279C24.2467 68.3079 20.4654 71.2686 8.39097 87.7662C-2.80707 103.058 -2.17414 103.394 11.8478 89.5976C25.9346 75.7097 23.8897 77.4037 36.3698 76.2744L39.7617 82.5773Z" fill="#575757"/>
</svg>

<svg xmlns="http://www.w3.org/2000/svg" width="315" height="112" fill="none"><path fill="#575757" d="M306.244 22.05c-4.479-8.363-11.003-12.957-18.404-12.957-7.173 0-13.129-2.09-14.33-5.02-.925-2.26-5.161-2.229-6.524.06-.942 1.587-1.867 1.389-7.547-1.633-7.433-3.922-11.376-3.144-17.284 3.465-9.25 10.301-.73 18.924 9.754 9.858 6.638-5.738 10.03-5.967 10.03-.702 0 7.89 4.154 13.888 10.5 15.155 3.132.626 6.589 1.48 7.709 1.877 1.736.626 2.012.046 1.85-3.846-.536-12.53 14.719-10.713 23.321 2.763 2.889 4.532 4.593 6.12 6.605 6.12 5.08 0 2.029-.748-5.68-15.14ZM39.762 82.577c4.722 8.76 16.65 12.545 15.466 4.9-1.12-7.235 4.284-7.57 9.007-.535 1.72 2.549 4.885 16.666 4.885 21.748 0 2.335.487 3.647 1.201 3.235 6.427-3.724-3.408-32.705-13.486-39.695-3.457-2.396-7.028-5.189-7.92-6.211-1.996-2.259-5.648-2.427-6.524-.306-.422 1.023-3.295 1.71-8.504 2.015-9.64.58-13.422 3.54-25.496 20.038-11.198 15.292-10.565 15.628 3.457 1.832C25.935 75.71 23.89 77.404 36.37 76.274l3.392 6.303Z"/></svg>
